X: 4
T: Funeral March of a Marionette
T: Alfred Hitchcock Theme
C: F. Gounod
S: PDF from Will Wheeler
Z: Transcription: Alina Larson; chords: Will Wheeler; harmony line: Richard Page
R: Jig
M: 6/8
L: 1/8
K: Am
V:1 clef=treble
E  |: c2c cBA      | B2c   d2E  | c2c  cBA  | B2c   d2E  |
   |1 A2c e2d      | c2e   g2f  | e2g  b2a  | ^g>fe dcE :|
   |2 c2e  g2f | edc   _Bdf | A^GA =B2c | B3    A2z  |]
  [|  e2E E^DE     | ^G2^F E3   | e2E  E^DE | ^G2^F E3   |
      e2E FGA      | B2E   FGA  | B2E  EDE  | DED   c2B ||
      A2c cBA      | B2c   d2E  | c2c  cBA  | B2c   d2E  |
      c2e g2f      | edc   _Bdf | A^GA =B2c | B3    A2   |]
V:2 clef=treble
B,  | A,2A A^G^F | ^G2A  B2B, | A,2A A^G^F | ^G2A  B3    |
    |1 A2c  e2d   | c2e   g2f  | e2g  b2a   | ^g>fe dcB, :|
    |2 c2e  g2f   | edc   _Bdf | A^GA =B2c  | B3    A2z   |]
   [| e2E  E^DE  | ^G2^F E3   | e2E  E^DE  | ^G2^F E3    |
      e2E  FGA   | B2E   FGA  | B2E  EDC   | DED   C2B, ||
      A,2A A^G^F | ^G2A  B2B, | A,2A A^G^F |
      ^G2A B3    | c2e   g2f  | edc  _Bdf  | A^GA  =B2c  |  B3 A2|]